X:143
T: Daqingshan wulala shantaoshan
N: C1639
O: China,Hebei, Guyuan
S: IV, 68]
R: Shange, Pashan diao. Nann liqing]
M: 2/4
L: 1/16
K: C
d4e2dc | c2AGF2D2 | d4e2dc | A8 |
d4e2dc | c2AGF2D2 | c6A2 | d2G2F2DF | G8

@@@ Tune index: 6698
